X:1
T: Balmoral Hornpipe
C:Alexander Walker
R:Reel
Q:232
K:A
M:4/4
L:1/8
ed|cA EA c2BA|Bc de f2ed|ce af ec BA|c2B2 B2ed|
cA EA c2BA|Bc de f2ed|ce af ec BA|B2A2 A2ed|
cA EA c2BA|Bc de f2ed|ce af ec BA|c2B2 B2ed|
cA EA c2BA|Bc de f2ed|ce af ec BA|B2A2 A3g|
ae fa ec BA|Ac de f2ed|ce af ec BA|c2B2 B2fg|
aA gA fA eA|de fg a2gf|ef ed cA BG|A2A2 A3g|
ae fa ec BA|Ac de f2ed|ce af ecBA|c2B2 B2cB|
AG FE DC B,A,|CE FG A2Bc|de fg ae fd|c2A2 A2||
